public/assets/maison.svg

<svg width="137" height="74" viewBox="0 0 137 74" fill="none" xmlns="http://www.w3.org/2000/svg">
<path d="M79.2253 28.1991H37.4055V73.6093H79.2253V28.1991Z" fill="#275954"/>
<path d="M76.4571 73.6091V29.187L56.5306 4.90173L37.4055 28.1988V73.6091H76.4571Z" fill="#275954"/>
<path d="M79.2276 73.6144H132.381V28.2042L79.2276 28.2042V73.6144Z" fill="#6DC3CD"/>
<path d="M113.002 0.54834H56.5305L79.2252 28.1991H135.696L113.002 0.54834Z" fill="#6DC3CD"/>
<path d="M124.863 50.9241V38.292H116.437V50.9241H124.863Z" fill="#6DC3CD"/>
<path d="M117.102 50.2589H124.194V38.9599H117.102V50.2589Z" fill="#0D677C"/>
<path d="M123.509 50.2589H124.198V38.9599H123.509V50.2589Z" fill="#73DBDF"/>
<path d="M115.742 50.9203H116.431V38.2882H115.742V50.9203Z" fill="#FFF9EB"/>
<path d="M109.691 50.9226V38.2905H101.265V50.9226H109.691Z" fill="#6DC3CD"/>
<path d="M101.931 50.2589H109.024V38.9599H101.931V50.2589Z" fill="#0D677C"/>
<path d="M108.338 50.2589H109.028V38.9599H108.338V50.2589Z" fill="#73DBDF"/>
<path d="M100.571 50.9203H101.261V38.2882H100.571V50.9203Z" fill="#FFF9EB"/>
<path d="M94.52 50.9205V38.2885H86.0946V50.9205H94.52Z" fill="#6DC3CD"/>
<path d="M86.7619 50.2589H93.8545V38.9599H86.7619V50.2589Z" fill="#0D677C"/>
<path d="M93.1595 50.2589H93.8491V38.9599H93.1595V50.2589Z" fill="#73DBDF"/>
<path d="M85.4018 50.9203H86.0916V38.2882H85.4018V50.9203Z" fill="#FFF9EB"/>
<path d="M56.5312 0.54834L79.2259 28.1991H135.697L133.488 29.7839L76.9611 29.7933L56.5312 4.90199L37.4061 28.1991H33.8271L56.5312 0.54834Z" fill="#FFF9EB"/>
<path d="M18.5699 54.954L64.3974 53.4717L65.3946 54.954L50.0815 73.6085H3.25679L2.25952 72.1261L18.5699 54.954Z" fill="#A5B2BF"/>
<path d="M17.5726 53.4717H64.3974L49.0843 72.1261H2.25952L17.5726 53.4717Z" fill="#FFF9EB"/>
<path d="M18.9151 55.1119H31.311L25.5324 62.1691H13.1272L18.9151 55.1119Z" fill="#2B7D9C"/>
<path d="M33.427 55.1119H45.8229L40.035 62.1691H27.6392L33.427 55.1119Z" fill="#2B7D9C"/>
<path d="M47.928 55.1119H60.3333L54.5454 62.1691H42.1401L47.928 55.1119Z" fill="#2B7D9C"/>
<path d="M12.1111 63.4371H24.5163L18.7284 70.485H6.32324L12.1111 63.4371Z" fill="#2B7D9C"/>
<path d="M26.623 63.4371H39.0189L33.2311 70.485H20.8352L26.623 63.4371Z" fill="#2B7D9C"/>
<path d="M41.1336 63.4371H53.5295L47.7417 70.485H35.3457L41.1336 63.4371Z" fill="#2B7D9C"/>
<path d="M18.1226 56.0724L13.127 62.1693H25.5322L26.5667 60.8922L18.1226 56.0724Z" fill="#73DBDF"/>
<path d="M11.328 64.3977L6.323 70.4853H18.7282L19.7721 69.2175L11.328 64.3977Z" fill="#73DBDF"/>
<path d="M25.8306 64.3977L20.835 70.4853H33.2308L34.2747 69.2175L25.8306 64.3977Z" fill="#73DBDF"/>
<path d="M40.3423 64.3977L35.3467 70.4853H47.7426L48.7865 69.2175L40.3423 64.3977Z" fill="#73DBDF"/>
<path d="M32.6346 56.0724L27.6389 62.1693H40.0348L41.0787 60.8922L32.6346 56.0724Z" fill="#73DBDF"/>
<path d="M47.1461 56.0724L42.1411 62.1693H54.5463L55.5902 60.8922L47.1461 56.0724Z" fill="#73DBDF"/>
<path d="M50.0815 73.6086L49.0843 72.1262H2.25952L3.25679 73.6086H50.0815Z" fill="#808F9B"/>
<path d="M59.4768 62.1696L65.3952 73.4685L50.082 73.6084L59.4768 62.1696Z" fill="#808F9B"/>
<path d="M57.9482 64.0345L62.8973 73.4877L50.082 73.6089L57.9482 64.0345Z" fill="#657682"/>
<line x1="0.849121" y1="72.5071" x2="136.606" y2="72.5071" stroke="#275954" stroke-width="2.82192"/>
</svg>

<svg width="137" height="74" fill="none" xmlns="http://www.w3.org/2000/svg"><path d="M79.225 28.2h-41.82v45.41h41.82V28.2z" fill="#275954"/><path d="M76.457 73.61V29.186L56.531 4.902 37.406 28.199v45.41h39.051z" fill="#275954"/><path d="M79.228 73.614h53.153v-45.41H79.228v45.41zM113.002.548H56.531L79.225 28.2h56.471L113.002.55z" fill="#6DC3CD"/><path d="M124.863 50.924V38.292h-8.426v12.632h8.426z" fill="#6DC3CD"/><path d="M117.102 50.259h7.092v-11.3h-7.092v11.3z" fill="#0D677C"/><path d="M123.509 50.259h.689v-11.3h-.689v11.3z" fill="#73DBDF"/><path d="M115.742 50.92h.689V38.288h-.689V50.92z" fill="#FFF9EB"/><path d="M109.691 50.923V38.29h-8.426v12.633h8.426z" fill="#6DC3CD"/><path d="M101.931 50.259h7.093v-11.3h-7.093v11.3z" fill="#0D677C"/><path d="M108.338 50.259h.69v-11.3h-.69v11.3z" fill="#73DBDF"/><path d="M100.571 50.92h.69V38.288h-.69V50.92z" fill="#FFF9EB"/><path d="M94.52 50.92V38.288h-8.425v12.633h8.425z" fill="#6DC3CD"/><path d="M86.762 50.259h7.093v-11.3h-7.093v11.3z" fill="#0D677C"/><path d="M93.16 50.259h.69v-11.3h-.69v11.3z" fill="#73DBDF"/><path d="M85.402 50.92h.69V38.288h-.69V50.92zM56.531.548 79.226 28.2h56.471l-2.209 1.585-56.527.01-20.43-24.892-19.125 23.297h-3.579L56.531.55z" fill="#FFF9EB"/><path d="m18.57 54.954 45.827-1.482.998 1.482-15.313 18.655H3.256l-.997-1.483 16.31-17.172z" fill="#A5B2BF"/><path d="M17.573 53.472h46.824L49.084 72.126H2.26l15.313-18.654z" fill="#FFF9EB"/><path d="M18.915 55.112h12.396l-5.779 7.057H13.127l5.788-7.057zM33.427 55.112h12.396l-5.788 7.057H27.639l5.788-7.057zM47.928 55.112h12.405l-5.788 7.057H42.14l5.788-7.057zM12.111 63.437h12.405l-5.788 7.048H6.323l5.788-7.048zM26.623 63.437h12.396l-5.788 7.048H20.835l5.788-7.048zM41.134 63.437h12.395l-5.787 7.048H35.346l5.788-7.048z" fill="#2B7D9C"/><path d="m18.123 56.072-4.996 6.097h12.405l1.035-1.277-8.444-4.82zM11.328 64.398l-5.005 6.087h12.405l1.044-1.267-8.444-4.82zM25.83 64.398l-4.995 6.087h12.396l1.044-1.267-8.444-4.82zM40.342 64.398l-4.995 6.087h12.396l1.043-1.267-8.444-4.82zM32.635 56.072l-4.996 6.097h12.396l1.044-1.277-8.444-4.82zM47.146 56.072l-5.005 6.097h12.405l1.044-1.277-8.444-4.82z" fill="#73DBDF"/><path d="m50.081 73.609-.997-1.483H2.26l.997 1.483H50.08zM59.477 62.17l5.918 11.299-15.313.14 9.395-11.44z" fill="#808F9B"/><path d="m57.948 64.034 4.95 9.454-12.816.12 7.866-9.574z" fill="#657682"/><path stroke="#275954" stroke-width="2.822" d="M.849 72.507h135.757"/></svg>
